!!!OTL: Ritter und Magd.
!!!OTL-incipit:Es spielt' sich ein Ritter mit einer Dam',
!!!ARE: Europa, Mitteleuropa, Deutschland (BRD), Hessen, Nassau
!!!YOR: 3, S. 54
!!    ????
!!!SCT: Q0055R
!!!YEM: Copyright 1995, estate of Helmut Schaffrath.
**kern	**text
*ICvox	*
*M6/8	*
*k[b-]	*
*F:	*
!LO:TX:a:t=115 (Nassau)	!
{8c	Es
=1	=1
8f	ſpielt'
8f	ſich
8a	ein
8cc	Ritter
8cc	.
8cc	mit
=2	=2
4a	ei-
16aL	-ner
16gJ	.
8f	Dam',
8r}	.
{8f	ſie
=3	=3
4ff	ſpiel-
8ff	-ten
8ffL	mit-
8ddJ	.
8b-	-ein-
=4	=4
4.dd	-an-
4cc}	-der;
{8b-	und
=5	=5
8a	als
8cc	ſie
8cc	das
8ff	Spielen
8dd	.
8dd	voll-
=6	=6
8ddL	-en-
8ccJ	.
8cc	-det
8cc	hattn,
8r}	.
{8a	da
=7	=7
8g	gingen
8dd	.
8dd	ſie
8ddL	mit-
8ccJ	.
8b-	-ein-
=8	=8
4.b-	-an-
4a}	-der.
==	==
!!!AGN: Ballade, Betrug, Schwangerschaft, Tod, Selbstmord, Herr und Magd
!!!ONB: ESAC (Essen Associative Code) Database: BALLADE
!!!AMT: compound duple
!!!AIN: vox
!!!EED: Helmut Schaffrath
!!!EEV: 1.0
!!!source: Deutsche Volkslieder mit ihren Melodien. Herausgegeben vom Deutschen Volksliedarchiv. Dritter Band Balladen. Berlin 1954.
!!!page: 54
!!!ENC: Anna Maria Matuszewska
!!!EEV: 2025/02/18
*-	*-
